static/assets/images/addons/logos/postgres.svg

<svg width="16" height="16" viewBox="0 0 16 16" fill="none" xmlns="http://www.w3.org/2000/svg">
<g clip-path="url(#clip0_703_2668)">
<path d="M9.02915 15.9957C8.9261 16.0066 8.82215 16.0066 8.71905 15.9957C8.45995 15.9293 8.2205 15.8018 8.0207 15.624C7.82085 15.4461 7.6665 15.2231 7.57045 14.9734C7.3331 14.4489 7.20045 13.8832 7.17995 13.308C7.17995 12.9059 7.17995 12.5039 7.17995 12.1594C6.7379 12.3223 6.2626 12.374 5.7959 12.3099C5.3292 12.2458 4.8854 12.0679 4.50369 11.7918C4.24089 11.9928 3.91675 12.0969 3.58607 12.0864C3.25538 12.0759 2.93847 11.9516 2.6889 11.7344C2.35571 11.4475 2.07912 11.1007 1.87339 10.7121C1.4533 9.9616 1.11446 9.1684 0.86263 8.346C0.53323 7.3005 0.276103 6.23365 0.0930665 5.1529C-0.067191 4.27356 -0.0199948 3.36897 0.230899 2.5111C0.384947 1.93679 0.704445 1.42045 1.14964 1.02631C1.59484 0.63216 2.1461 0.377603 2.73484 0.2943C3.47009 0.14486 4.22789 0.14486 4.96313 0.2943C5.34215 0.374702 5.7097 0.478076 6.11175 0.58145C6.1454 0.59203 6.18145 0.59203 6.2151 0.58145C6.81675 0.270036 7.49145 0.127159 8.1677 0.167954L9.19 0.259842H9.3163C10.2033 0.00124156 11.1353 -0.0653246 12.05 0.0645799C13.2338 0.223693 14.309 0.83754 15.0478 1.77599C15.2688 2.08241 15.4001 2.44436 15.4269 2.82122C15.4788 3.46009 15.4324 4.10314 15.2891 4.72789C14.9611 6.23785 14.3992 7.68725 13.6236 9.02365V9.1385L14.2668 9.03515C14.4929 8.9778 14.7298 8.9778 14.9559 9.03515C15.0731 9.0654 15.1821 9.1214 15.2751 9.199C15.3679 9.27665 15.4424 9.374 15.493 9.48395C15.5436 9.59395 15.569 9.7138 15.5675 9.8348C15.566 9.95585 15.5376 10.0751 15.4843 10.1838C15.3685 10.4123 15.199 10.6094 14.9904 10.758C14.4783 11.1624 13.8598 11.4098 13.2101 11.4702H12.4291C12.4239 11.5543 12.4239 11.6387 12.4291 11.7228C12.4272 12.3329 12.3618 12.9411 12.2338 13.5377C12.0993 14.0745 11.844 14.5734 11.4872 14.9964C11.1558 15.4134 10.6952 15.7084 10.1777 15.8349C9.9251 15.9038 9.6724 15.9382 9.4197 15.9842H9.02915V15.9957ZM7.5245 11.1141V11.2289C7.5054 12.0338 7.53225 12.8392 7.6049 13.6411C7.62585 13.9934 7.7197 14.3376 7.88055 14.6518C8.0061 14.9284 8.21295 15.1602 8.4736 15.3161C8.7342 15.4721 9.0362 15.5448 9.3393 15.5247C9.78795 15.5138 10.2281 15.3998 10.6257 15.1917C10.9706 15.0231 11.2408 14.7325 11.3838 14.3762C11.4583 14.21 11.516 14.0368 11.5561 13.8593C11.6709 13.1356 11.7629 12.4006 11.8662 11.677C11.8662 11.4357 11.9237 11.1831 11.9581 10.9418H12.2683C12.6152 10.9874 12.9665 10.9874 13.3134 10.9418C13.8606 10.8576 14.3693 10.6093 14.7722 10.2297C14.8687 10.1383 14.9467 10.029 15.0019 9.9081C15.022 9.864 15.0317 9.81575 15.0298 9.7673C15.028 9.71885 15.0148 9.6715 14.9914 9.62905C14.9678 9.5866 14.9348 9.55025 14.8947 9.5229C14.8546 9.49555 14.8088 9.478 14.7607 9.4716C14.6846 9.45995 14.6071 9.45995 14.5309 9.4716L13.9452 9.575C13.6372 9.6266 13.3228 9.6266 13.0148 9.575L12.7621 9.4946L12.854 9.34525C13.7789 7.8884 14.4363 6.27805 14.7951 4.59007C14.9302 4.03029 14.9767 3.45282 14.933 2.87865C14.926 2.58514 14.8298 2.30072 14.6573 2.06314C14.172 1.43299 13.5073 0.964495 12.7507 0.71928C11.6309 0.355117 10.4245 0.355117 9.30485 0.71928C9.2674 0.730795 9.2274 0.730795 9.19 0.71928C8.86745 0.664385 8.5408 0.637485 8.21365 0.63888C7.5262 0.6015 6.84405 0.778055 6.26105 1.14426C6.24535 1.15333 6.2275 1.15811 6.20935 1.15811C6.1912 1.15811 6.1734 1.15333 6.15765 1.14426C5.59525 0.94483 5.0142 0.80245 4.42329 0.71928C3.84252 0.63479 3.25137 0.654235 2.67741 0.77671C2.24598 0.865325 1.84435 1.06273 1.51065 1.3502C1.17694 1.63766 0.92225 2.00565 0.77074 2.41921C0.525025 3.11478 0.442497 3.85752 0.529535 4.59007C0.529535 4.9691 0.644395 5.35965 0.71331 5.73865C0.942675 6.93355 1.27707 8.10585 1.71259 9.2419C1.90726 9.7634 2.16165 10.2606 2.47067 10.7236C2.61382 10.9299 2.79277 11.1088 2.99903 11.252C3.15452 11.3694 3.34404 11.4328 3.53887 11.4328C3.7337 11.4328 3.92322 11.3694 4.07871 11.252C4.20728 11.1561 4.32308 11.0441 4.42329 10.9188C4.8253 10.4824 5.20435 10.0459 5.5719 9.59795C5.5882 9.5849 5.60845 9.5778 5.6293 9.5778C5.6502 9.5778 5.67045 9.5849 5.68675 9.59795C5.86145 9.6933 6.05225 9.7556 6.24955 9.78175H6.51375L6.26105 10.0919C6.1778 10.21 6.0559 10.2952 5.91645 10.333C5.7442 10.333 5.5604 10.4134 5.3881 10.4709C5.2248 10.5092 5.0667 10.567 4.91718 10.6432C4.85974 10.6749 4.81185 10.7215 4.7785 10.7781C4.74516 10.8347 4.72757 10.8991 4.72757 10.9648C4.72757 11.0304 4.74516 11.0949 4.7785 11.1515C4.81185 11.208 4.85974 11.2546 4.91718 11.2864C4.99574 11.3586 5.08025 11.4239 5.1699 11.4817C5.4162 11.5759 5.676 11.6301 5.93945 11.6425C6.4731 11.6944 7.00565 11.5333 7.42115 11.1945L7.5245 11.1141Z" fill="#1971BD"/>
<path d="M12.2914 4.1765C12.0846 4.1765 11.8779 4.1765 11.6711 4.1765C11.4956 4.19825 11.3225 4.23672 11.1543 4.29136C10.9158 4.36516 10.7112 4.52098 10.5766 4.73121C10.4421 4.94145 10.3863 5.19254 10.4192 5.43994C10.438 5.84294 10.5274 6.23949 10.6833 6.61154C10.8713 7.09959 11.09 7.57529 11.338 8.03579C11.4529 8.24254 11.5678 8.44929 11.6711 8.66754C11.7893 8.91254 11.9399 9.14049 12.1191 9.34519C12.1525 9.38519 12.1832 9.42739 12.211 9.47154C12.0369 9.51514 11.8824 9.61569 11.7721 9.75724C11.6618 9.89879 11.602 10.0731 11.6022 10.2526C11.5333 11.4012 11.3725 12.4924 11.2117 13.618C11.1843 13.7774 11.1459 13.9348 11.0968 14.0889C11.0374 14.2972 10.9246 14.4863 10.7694 14.6375C10.6142 14.7886 10.4222 14.8965 10.2124 14.9504C9.98593 15.031 9.75078 15.085 9.51178 15.1112C9.28003 15.1502 9.04188 15.1117 8.83418 15.0016C8.62653 14.8916 8.46098 14.7161 8.36318 14.5024C8.19343 14.2217 8.08393 13.9088 8.04158 13.5835C7.96113 12.5842 7.96113 11.585 7.97263 10.5857C7.99543 10.4218 7.99543 10.2556 7.97263 10.0918C7.94293 9.92524 7.86143 9.77234 7.73978 9.65479C7.61808 9.53724 7.46243 9.46104 7.29498 9.43709C7.21113 9.42529 7.12608 9.42529 7.04228 9.43709V9.29924L7.49023 8.15064C7.74248 7.55289 7.83358 6.89944 7.75443 6.25549C7.72708 5.90804 7.67723 5.56269 7.60508 5.22174C7.58408 5.07019 7.53303 4.92432 7.45488 4.79277C7.37673 4.66121 7.27313 4.54659 7.15008 4.45564C7.02703 4.3647 6.88703 4.29925 6.73833 4.26315C6.58968 4.22705 6.43523 4.22102 6.28418 4.24542C5.88233 4.29084 5.49268 4.41164 5.13558 4.60148H5.03223C5.03223 4.44068 5.03223 4.30285 5.08963 4.15353C5.16563 3.57144 5.34453 3.0075 5.61803 2.48806C5.90063 1.96913 6.34973 1.56048 6.89298 1.32797C7.29923 1.17361 7.73458 1.11085 8.16788 1.1442C8.93718 1.16508 9.68733 1.38844 10.3427 1.79175C10.9981 2.19507 11.5355 2.76408 11.9008 3.4414C12.0502 3.6826 12.1535 3.95827 12.2799 4.21096C12.2799 4.14204 12.2914 4.15353 12.2914 4.1765Z" fill="#1971BD"/>
<path d="M5.81278 1.50027C5.58053 1.73501 5.38328 2.00192 5.22698 2.2928C4.92162 2.83187 4.70813 3.41801 4.59526 4.02719C4.52624 4.62631 4.52624 5.23135 4.59526 5.8305C4.6067 6.31395 4.58367 6.79755 4.52634 7.27775C4.48769 7.6271 4.52972 7.98065 4.6492 8.3112C4.76868 8.64175 4.96242 8.9405 5.21548 9.1844V9.24185L4.99727 9.47155L3.9865 10.6201C3.91335 10.7048 3.82822 10.7783 3.73381 10.8384C3.65935 10.8892 3.57128 10.9164 3.48111 10.9164C3.39094 10.9164 3.30287 10.8892 3.22842 10.8384C3.07059 10.7399 2.93393 10.6111 2.82641 10.4593C2.55319 10.0754 2.32937 9.65865 2.16022 9.21885C1.74553 8.1888 1.42266 7.12415 1.1954 6.03725C1.14946 5.62375 1.04608 5.14135 0.988652 4.64743C0.892092 3.99664 0.947122 3.33233 1.14946 2.7063C1.25848 2.30711 1.47992 1.94765 1.7874 1.67071C2.09488 1.39378 2.47546 1.21102 2.88384 1.1442C3.35947 1.06896 3.84397 1.06896 4.31959 1.1442C4.80266 1.21607 5.27903 1.32748 5.74383 1.47729L5.81278 1.50027Z" fill="#1971BD"/>
<path d="M12.4981 9.03519C12.4292 9.03519 12.4177 8.94329 12.4981 8.86289C12.723 8.46064 12.8267 8.00189 12.7967 7.54199C12.7967 7.20889 12.7967 6.88729 12.7163 6.55419C12.6683 6.17284 12.6683 5.78699 12.7163 5.40559C12.7602 5.08949 12.7871 4.77126 12.7967 4.45227C12.7938 4.3171 12.7625 4.18405 12.7048 4.06175C12.4847 3.41355 12.1378 2.81566 11.6842 2.30294C11.2307 1.79022 10.6796 1.37292 10.0631 1.07539L9.99414 1.02944L10.5455 0.949043C11.1321 0.875943 11.727 0.907053 12.3028 1.04093C13.0919 1.21912 13.7968 1.66067 14.3014 2.2929C14.4237 2.45983 14.4919 2.66029 14.4967 2.8672C14.5491 3.44516 14.5025 4.02783 14.3588 4.5901C14.0082 6.17419 13.3865 7.68579 12.5211 9.05814L12.4981 9.03519Z" fill="#1971BD"/>
<path d="M5.03223 5.99132V5.26772C5.01918 5.25142 5.01208 5.23117 5.01208 5.21027C5.01208 5.18942 5.01918 5.16917 5.03223 5.15287C5.41168 4.89468 5.85028 4.73663 6.30718 4.69341C6.42138 4.67609 6.53758 4.67609 6.65178 4.69341C6.77918 4.72255 6.89473 4.78982 6.98293 4.88627C7.07118 4.98271 7.12793 5.10377 7.14568 5.23327C7.28518 5.77307 7.34703 6.32997 7.32943 6.88722C7.31003 7.28397 7.21653 7.67352 7.05378 8.03582C6.86383 8.42682 6.71008 8.83437 6.59433 9.25337C6.59433 9.31077 6.59433 9.25337 6.51393 9.25337C6.12888 9.23832 5.76373 9.07832 5.49168 8.80542C5.28168 8.59827 5.12258 8.34527 5.02688 8.06622C4.93122 7.78722 4.9016 7.48977 4.94035 7.19737C4.94035 6.77237 5.00928 6.34742 5.04373 5.92242L5.03223 5.99132ZM6.47948 4.92313H6.23828C6.21908 4.92923 6.20148 4.93945 6.18668 4.95307C6.17183 4.9667 6.16023 4.98341 6.15253 5.00202C6.14488 5.02062 6.14138 5.04067 6.14228 5.06082C6.14323 5.08092 6.14853 5.10057 6.15788 5.11842C6.17418 5.19517 6.21093 5.26612 6.26423 5.32377C6.31748 5.38142 6.38533 5.42362 6.46058 5.44597C6.53583 5.46832 6.61568 5.46997 6.69178 5.45072C6.76788 5.43147 6.83738 5.39207 6.89298 5.33662C7.00783 5.22177 6.98488 5.09542 6.89298 5.03802C6.75843 4.9887 6.62018 4.95029 6.47948 4.92313Z" fill="#1971BD"/>
<path d="M12.3602 4.65898C12.3446 4.86703 12.3178 5.07409 12.2798 5.27924C12.1994 5.80069 12.1994 6.33134 12.2798 6.85279C12.344 7.23299 12.344 7.62124 12.2798 8.00139C12.2798 8.16219 12.1879 8.32299 12.1419 8.50679C11.8892 8.03584 11.6365 7.57644 11.4068 7.10549C11.1759 6.67549 11.0058 6.21549 10.9014 5.73864C10.861 5.55324 10.861 5.36129 10.9014 5.17584C10.919 5.03074 10.9854 4.89594 11.0898 4.79364C11.1942 4.69134 11.3303 4.62764 11.4757 4.61304C11.7644 4.56144 12.06 4.56144 12.3487 4.61304L12.3602 4.65898ZM11.5446 5.29069C11.6218 5.28664 11.6964 5.26214 11.761 5.21974C11.8256 5.17739 11.8778 5.11864 11.9122 5.04949C11.9696 4.95762 11.9122 4.8887 11.8433 4.85424C11.7452 4.82329 11.6412 4.81548 11.5396 4.83142C11.438 4.84736 11.3414 4.88662 11.2575 4.94613C11.2406 4.95483 11.2265 4.968 11.2166 4.98421C11.2067 5.00044 11.2015 5.01904 11.2015 5.03804C11.2015 5.05699 11.2067 5.07559 11.2166 5.09184C11.2265 5.10804 11.2406 5.12119 11.2575 5.12989C11.2902 5.17659 11.333 5.21524 11.3827 5.24309C11.4324 5.27094 11.4878 5.28719 11.5446 5.29069Z" fill="#1971BD"/>
<path d="M5.22732 10.9648L5.67527 10.8614L6.14622 10.7236C6.34562 10.6501 6.51522 10.5128 6.62862 10.3331C6.73197 10.2067 6.84687 10.0804 6.95022 9.94258C7.05362 9.80473 7.26037 9.79323 7.40967 9.94258C7.44787 9.97998 7.47822 10.0247 7.49892 10.074C7.51967 10.1233 7.53032 10.1762 7.53032 10.2297C7.53032 10.2832 7.51967 10.3361 7.49892 10.3855C7.47822 10.4348 7.44787 10.4794 7.40967 10.5169C7.22482 10.7481 6.98132 10.9256 6.70452 11.0306C6.42772 11.1357 6.12782 11.1645 5.83607 11.1141C5.67312 11.0907 5.51192 11.0562 5.35367 11.0108L5.21582 10.9418L5.22732 10.9648Z" fill="#1971BD"/>
<path d="M14.4274 9.95401L14.324 10.0344C13.9498 10.3161 13.5041 10.4872 13.0375 10.5283C12.7599 10.5742 12.4767 10.5742 12.1991 10.5283C11.9923 10.5283 11.9808 10.5283 11.9923 10.2756C11.9908 10.2158 12.0012 10.1563 12.0231 10.1007C12.0449 10.045 12.0776 9.99421 12.1194 9.95141C12.1611 9.90856 12.211 9.87456 12.2662 9.85131C12.3213 9.82811 12.3805 9.81616 12.4403 9.81616C12.7228 9.99871 13.059 10.0797 13.3936 10.0459L14.4274 9.95401Z" fill="#1971BD"/>
</g>
<defs>
<clipPath id="clip0_703_2668">
<rect width="16" height="16" fill="white"/>
</clipPath>
</defs>
</svg>

<svg xmlns="http://www.w3.org/2000/svg" width="16" height="16" fill="none" xmlns:v="https://vecta.io/nano"><g clip-path="url(#A)" fill="#1971bd"><path d="M9.029 15.996c-.103.011-.207.011-.31 0-.259-.066-.499-.194-.698-.372s-.354-.401-.45-.651a4.42 4.42 0 0 1-.391-1.665v-1.149a2.87 2.87 0 0 1-2.676-.368c-.263.201-.587.305-.918.295s-.648-.135-.897-.352c-.333-.287-.61-.634-.816-1.022-.42-.75-.759-1.544-1.011-2.366C.533 7.301.276 6.234.093 5.153c-.16-.879-.113-1.784.138-2.642A3.03 3.03 0 0 1 2.735.294c.735-.149 1.493-.149 2.228 0l1.149.287c.034.011.07.011.103 0C6.817.27 7.491.127 8.168.168L9.19.26h.126A6.5 6.5 0 0 1 12.05.065c1.184.159 2.259.773 2.998 1.711.221.306.352.668.379 1.045a6.26 6.26 0 0 1-.138 1.907 14.83 14.83 0 0 1-1.665 4.296v.115l.643-.103a1.4 1.4 0 0 1 .689 0c.117.03.226.086.319.164s.167.175.218.285.076.23.075.351-.03.24-.083.349c-.116.229-.285.426-.494.574-.512.404-1.131.652-1.78.712h-.781c-.005.084-.005.168 0 .253a8.78 8.78 0 0 1-.195 1.815 3.63 3.63 0 0 1-.747 1.459 2.4 2.4 0 0 1-1.309.838c-.253.069-.505.103-.758.149h-.391v.011zm-1.505-4.882v.115a21.17 21.17 0 0 0 .08 2.412 2.55 2.55 0 0 0 .276 1.011c.126.277.332.508.593.664s.563.229.866.209a2.93 2.93 0 0 0 1.286-.333 1.55 1.55 0 0 0 .758-.816 2.74 2.74 0 0 0 .172-.517l.31-2.182c0-.241.058-.494.092-.735h.31a4.01 4.01 0 0 0 1.045 0c.547-.084 1.056-.333 1.459-.712.097-.091.175-.201.23-.322a.31.31 0 0 0-.01-.279.31.31 0 0 0-.231-.157.76.76 0 0 0-.23 0l-.586.103c-.308.052-.622.052-.93 0l-.253-.08.092-.149c.925-1.457 1.582-3.067 1.941-4.755a5.51 5.51 0 0 0 .138-1.711c-.007-.294-.103-.578-.276-.816A3.94 3.94 0 0 0 12.751.719a5.57 5.57 0 0 0-3.446 0c-.037.012-.077.012-.115 0-.323-.055-.649-.082-.976-.08a3.33 3.33 0 0 0-1.953.505c-.016.009-.034.014-.052.014s-.036-.005-.052-.014A8.9 8.9 0 0 0 4.423.719a4.95 4.95 0 0 0-1.746.057c-.431.089-.833.286-1.167.573s-.588.655-.74 1.069C.525 3.115.442 3.858.53 4.59c0 .379.115.77.184 1.149.229 1.195.564 2.367.999 3.503.195.522.449 1.019.758 1.482a2.1 2.1 0 0 0 .528.528c.155.117.345.181.54.181s.384-.063.54-.181c.129-.096.244-.208.345-.333l1.149-1.321c.016-.013.037-.02.057-.02s.041.007.057.02a1.62 1.62 0 0 0 .563.184h.264l-.253.31a.62.62 0 0 1-.345.241c-.172 0-.356.08-.528.138-.163.038-.321.096-.471.172-.057.032-.105.078-.139.135s-.051.121-.051.187.018.13.051.187.081.103.139.135c.079.072.163.137.253.195a2.48 2.48 0 0 0 .77.161c.534.052 1.066-.109 1.482-.448l.103-.08z"/><path d="M12.291 4.177h-.62a2.78 2.78 0 0 0-.517.115c-.238.074-.443.23-.578.44s-.19.461-.157.709c.019.403.108.8.264 1.172a12.42 12.42 0 0 0 .655 1.424l.333.632a3.02 3.02 0 0 0 .448.678 1.17 1.17 0 0 1 .092.126c-.174.044-.329.144-.439.286s-.17.316-.17.495c-.069 1.149-.23 2.24-.39 3.365a3.51 3.51 0 0 1-.115.471 1.24 1.24 0 0 1-.884.861c-.226.081-.462.135-.701.161a1.07 1.07 0 0 1-1.149-.609c-.17-.281-.279-.594-.322-.919-.08-.999-.08-1.998-.069-2.998a1.79 1.79 0 0 0 0-.494c-.03-.167-.111-.319-.233-.437s-.277-.194-.445-.218c-.084-.012-.169-.012-.253 0v-.138l.448-1.149a3.71 3.71 0 0 0 .264-1.895 8.04 8.04 0 0 0-.149-1.034 1.15 1.15 0 0 0-.455-.766 1.15 1.15 0 0 0-.866-.21c-.402.045-.792.166-1.149.356h-.103c0-.161 0-.299.057-.448a4.95 4.95 0 0 1 .528-1.665 2.63 2.63 0 0 1 1.275-1.16 2.95 2.95 0 0 1 1.275-.184c.769.021 1.519.244 2.175.648s1.193.972 1.558 1.65c.149.241.253.517.379.77 0-.069.011-.057.011-.034z"/><path d="M5.813 1.5a3.48 3.48 0 0 0-.586.793 5.58 5.58 0 0 0-.632 1.734 7.88 7.88 0 0 0 0 1.803 10.29 10.29 0 0 1-.069 1.447c-.039.349.003.703.123 1.033a2.31 2.31 0 0 0 .566.873v.057l-.218.23-1.011 1.149a1.15 1.15 0 0 1-.253.218.45.45 0 0 1-.505 0 1.4 1.4 0 0 1-.402-.379c-.273-.384-.497-.801-.666-1.24a18.85 18.85 0 0 1-.965-3.182l-.207-1.39c-.097-.651-.042-1.315.161-1.941a2.16 2.16 0 0 1 1.734-1.562 4.61 4.61 0 0 1 1.436 0 8.92 8.92 0 0 1 1.424.333l.069.023zm6.685 7.535c-.069 0-.08-.092 0-.172a2.39 2.39 0 0 0 .299-1.321c0-.333 0-.655-.08-.988a4.6 4.6 0 0 1 0-1.149 8.87 8.87 0 0 0 .08-.953c-.003-.135-.034-.268-.092-.391-.22-.648-.567-1.246-1.021-1.759a5.17 5.17 0 0 0-1.621-1.228l-.069-.046.551-.08a5.02 5.02 0 0 1 1.757.092 3.56 3.56 0 0 1 1.999 1.252 1.01 1.01 0 0 1 .195.574 5.1 5.1 0 0 1-.138 1.723 14.08 14.08 0 0 1-1.838 4.468l-.023-.023z"/><path d="M5.032 5.991v-.724c-.013-.016-.02-.037-.02-.057s.007-.041.02-.057a2.72 2.72 0 0 1 1.275-.459 1.15 1.15 0 0 1 .345 0 .64.64 0 0 1 .331.193.65.65 0 0 1 .163.347 5.87 5.87 0 0 1 .184 1.654 3.18 3.18 0 0 1-.276 1.149 7.07 7.07 0 0 0-.459 1.218c0 .057 0 0-.08 0a1.53 1.53 0 0 1-1.022-.448 1.91 1.91 0 0 1-.552-1.608c0-.425.069-.85.103-1.275l-.011.069zm1.447-1.068h-.241c-.019.006-.037.016-.052.03a.14.14 0 0 0-.034.049c-.008.019-.011.039-.01.059s.006.04.016.058a.43.43 0 0 0 .106.205c.053.057.121.1.196.122a.44.44 0 0 0 .231.005c.076-.019.146-.059.201-.114.115-.115.092-.241 0-.299-.135-.049-.273-.088-.413-.115zm5.881-.264a5.87 5.87 0 0 1-.08.62 5.19 5.19 0 0 0 0 1.574 3.45 3.45 0 0 1 0 1.149c0 .161-.092.322-.138.505l-.735-1.401c-.231-.43-.401-.89-.505-1.367a1.32 1.32 0 0 1 0-.563c.018-.145.084-.28.188-.382s.24-.166.386-.181a2.48 2.48 0 0 1 .873 0l.012.046zm-.816.632c.077-.004.152-.029.216-.071s.117-.101.151-.17c.057-.092 0-.161-.069-.195-.098-.031-.202-.039-.304-.023a.66.66 0 0 0-.282.115c-.017.009-.031.022-.041.038s-.015.035-.015.054.005.038.015.054.024.029.041.038a.38.38 0 0 0 .287.161zm-6.317 5.674l.448-.103.471-.138c.199-.073.369-.211.482-.39l.322-.391c.103-.138.31-.149.459 0a.4.4 0 0 1 .121.287c0 .054-.011.106-.031.156a.38.38 0 0 1-.089.131c-.185.231-.428.409-.705.514a1.66 1.66 0 0 1-.868.084 3.61 3.61 0 0 1-.482-.103l-.138-.069.011.023zm9.2-1.011l-.103.08a2.5 2.5 0 0 1-1.287.494 2.57 2.57 0 0 1-.838 0c-.207 0-.218 0-.207-.253-.002-.06.009-.119.031-.175a.46.46 0 0 1 .096-.149c.041-.043.092-.077.147-.1a.45.45 0 0 1 .174-.035 1.48 1.48 0 0 0 .953.23l1.034-.092z"/></g><defs><clipPath id="A"><path fill="#fff" d="M0 0h16v16H0z"/></clipPath></defs></svg>
